X:317
T:Nashville Skyline Rag
C:Bob Dylan 
N:Basic version plus a Don Rigsby inspired transription from JD Crowe "Flashback" Transcribed by Tim Lee 
R:bluegrass
L:1/8
Q:1/4=250
M:4/4
K:C
z4 zG, A,B, |: "C"CB, CD EF GE | "F"FE FG AB cA | "C"CB, CD EF GE | "F"FE FG FE DB, | 
"C"CB, CD EF GE | "F"FE FG AB cA | "G"G^F GA Bc dB |1 "C"c2 [cG][cG] [c2G2] A,B, :|2 c2 [cE][cE] [cE]{E}^F3 | 
"D"D2 {^c}dd dd dd | "D"Bc BA GD E^F | "G"GF ED CB, A,B, | "G"G,2 D2 D2 ^D2 | 
"E"E2 [e^G][eG] [eG][eG] [eG][eG] | "E"[e^G][eG] [^d2=G2] [=d2^F2] [d2F2] | "A"c^c e=c ^ce =c^c | 
"A"A2 G,4 A,B, | "C"CB, CD EF GE | "F"FE FG2[AA] cd | "C"c2 cd [e2e2] ga | "F"g2 c'2 a_b ag | 
"C"c'c' c'c' c'2 ^d'z | "F"c'c' c'c' c'2 _bz | ga ge dc Bd | c8 | z8 | z2 e2 f2 ^f2 | 
"2nd version"ge ce ge ce | g2 a2 {b}c'2 a2 | ga g2 {^d}eA =dA | cd cG Ac G2 | 
cd cd eg ag | c'2 _ba ga g2 | {d}eA dA cd cG | c6 G,B, | CB, CD ED CD | FE FG Ac dc | 
zd Ac de ga | g2 c'2 _ba ga | g2 {d}eA dA cd | cG Ac Ac AG | F2 GA cd eg | ed cG c4 | 
{g}a2 g2 f^f dA | cB Ac BA FA | _B=B _B=B AF EF | ED B,2 G,2 A,2 | B,2 D2 E2 ^F2 | 
A2 B2 ^ce ^f2 | a2 (3e^f^g ae fg | ^fe ^cA Bc A2 | {G}A2 c2 d2 c2 | {d}e2 g2 a2 {b}c'2 | 
_ba ga g2 cd | eg eg ed cG | Ac Ac AG F2 | GA cd eg ed | cG cG D^D =D^D | [c4E4C4] [c4E4C4] | 


